X:1
T:Title
%%score { ( 1 3 4 ) | ( 2 5 ) }
L:1/8
M:3/4
K:Ab
V:1 treble nm="Grand Piano"
V:3 treble 
V:4 treble 
V:2 bass 
V:5 bass 
V:1
 z2 z2 z[Q:1/4=84] E | FE E3 A | GF [CE]3 [CEA] | [CEG][CFA] [DFB]3 [Fd] | [EGc][EGB] [EAc]3 E | %5
 FE E3 A | Bc [DFd]3 [DF] | [EFc][DFB] A3 e | %8
[M:23/32] d/4-d/4-d/4-d/4-d/4-d/4-d/-<d/ z/4[Q:1/4=69] z/4 z/4 z/4 z/4 z/4 z/4 z/4 z/4 z/4 z/4 z/[Q:1/4=83][Q:1/4=82][Q:1/4=80][Q:1/4=79][Q:1/4=78][Q:1/4=77][Q:1/4=75][Q:1/4=74][Q:1/4=73][Q:1/4=72][Q:1/4=70][Q:1/4=68][Q:1/4=67][Q:1/4=65][Q:1/4=64] |] %9
V:2
 z2 z2 z [A,C] | [A,C][A,C] [A,C]3 [A,CE] | [A,D][A,D] A,,3 A,, | C,F, B,,3 B,, | %4
 E,E, A,,3[K:treble] [A,C] | [A,C][A,C] [A,C]3 [A,C] | [A,DG][A,E_G][K:bass] D,3 D, | %7
 B,,B,, [E,CE]3 [E,CE] | %8
[M:23/32] [E,E]/4-[E,E]/4-[E,E]/4-[E,E]/4-[E,E]/-<[E,E]/[E,DE]3/4 z/4 z/4 z/4 z/4 z/4 z/4 z/4 z/4 z/4 z/4 z/ |] %9
V:3
 x6 | x6 | x6 | x6 | x6 | x6 | x6 | x6 | %8
[M:23/32] z/4 z/4 z/4 z/4 z/4 z/4 z/ G3/4 z/4 z/4 z/4 z/4 z/4 z/4 z/4 z/4 z/4 z/4 z/ |] %9
V:4
 x6 | x6 | x6 | x6 | x6 | x6 | x6 | x6 | %8
[M:23/32] z/4 z/4 z/4 z/4 z/4 z/4 z/4 z/4 z/ [CEA]/4-[CEA]/4-[CEA]/4-[CEA]/4-[CEA]/4-[CEA]/4-[CEA]/4-[CEA]/4-[CEA]/4-[CEA]/-<[CEA]/ |] %9
V:5
 x6 | x6 | x6 | x6 | x5[K:treble] x | x6 | x2[K:bass] x4 | x6 | %8
[M:23/32] B,/4-B,/4-B,/4-B,/4-B,/4-B,/4-B,/-<B,/A,,/4-A,,/4-A,,/4-A,,/4-A,,/4-A,,/4-A,,/4-A,,/4-A,,/4-A,,/-<A,,/ |] %9

